X:1
T:D Major Samuel Babcock, 1795
T:Based on Isaiah 40
T:Comfort ye, comfort ye, my people
T:Anthem Transcribed from The Middlesex Harmony, 1795.
%%score [ 1 2 3 4 ]
L:1/8
Q:1/4=100
M:2/4
K:D
V:1 treble nm="Treble" snm="Tr."
V:2 treble nm="Counter" snm="C."
V:3 treble-8 nm="Tenor" snm="T."
V:4 bass nm="Bass" snm="B."
V:1
 z4 | z4 | %2
"^Comfort  ye,                                                    Comfort   ye           my            peo –  ple,  Comfort  ye my peo – ple," A2 A2 | %3
 A4 | z4 | F2 F2 | A2 A2 | F2 F2 | AB cd | e2 e2 |"^saith your   God. ___" d2 cB | A4- | A4 |: z4 | %14
 z4 | %15
"^Speak                        com–for – ta – bly    un      –      to      Je  –  ru –  sa–lem," d4 | %16
 dd dd | ed cB | A>A A z | z4 | z4 | z4 | %22
 z2 z"^And   cry      un – to     her   that  her  warfare is   ac–com–plish'd,   her" d | A>B AG | %24
 F2 AA | AA d d/c/ | BB z e | %27
"^sins are pardon'd, her sins are pardon'd, her sins are pardon'd, her warfare is accomplish'd, that her sins           are" ed cB | %28
 A2 AF | ^G2 G2 | ^G2 Bd | A2 A2 | A2 A A/G/ | FF FF | FF FF | B2 A^G | %36
"^pardon'd, her sins are pardon'd, her sins are pardon'd.    pardon'd. For he hath re-cei-ved   of the Lord's hand double for" A2 cc | %37
 d2 B2 | B2 BB | A>d AF |1 A2 A2 :|2 A2 AF || A2 Ad | cB AG | F2 A2 | d B2 e/d/ | %46
"^all     her    sins.  For  he hath re–cei–ved of  the Lord's hand double for  all  her      sins.   For he hath re–cei–ved  of   the" cB A^G | %47
 A3 A | A2 dd | AA AA | d2 A2 | B d2 g/f/ | ed cB | A3 d | A2 Ad | cc cc | %56
"^Lord's hand double for all her sins.   The voice of him that crieth in the wilderness, prepare ye the way of the Lord,    Make" d2 A2 | %57
 B B2 d | A4 | A4 | A4 | z2 D2 | F3 G | A3 A | AB cA | d>d dd | c2 BB | A2 BG | F4 | z2 d2 | %70
"^straight  in        the       desert   a  highway for our God,  Make straight in  the  desert  a   highway  for  our  God.            Every" (A3 =c) | %71
 B<A GF | ^G2 G B/c/ | d2 B2 | A2 B2 | A4 | A4 | A4 | GB AG | F2 AA | d2 B2 | B2 A2 | A4 | z4 | %84
 F2 F2 |"^valley shall  be      exalted, and every mountain and hill made low." A2 AA | B>A GB | %87
 A2 cc | d2 d2 | f2 ed | c2 B2 | A4 |: A2 A2 | A2 Ad | c3 c | c2 dA | B2 B2 | B2 cB | A2 A2 | A4 :| %100
 z4 | A3 d | c3 e | fd ce | d4 | d3 d | f3 d | c2 A2 |[M:3/4] A4"^shall be revealed, And the" d2 | %109
 e4 c2 | d2 d2 ee | %111
"^glo – ry  of  the Lord shall be         re–vea–led.  And all flesh shall see  it , shall see it   to– ge–ther." f2 f2 Bc | %112
 d4 A2 | B4 A2 | A2 A2 d2 |: c2 c2 e2 | d2 d2 f2 | e2 e2 ed | c2 c2 d2 | B2 c2 A2 | B2 A2 A2 |1 %121
 A2 A2"^And" d2 :|2 A2 A4 ||[M:2/4] z4 |: %124
"^Hal – le – lu –  jah,    A – men.    Hal–le–lu–jah,   A–men.  Hal–le –  lu    –   jah,         A  –  men." A3 d | %125
 B2 cA | d4 | d2 z2 | d2 A2 | F2 A2 | F2 D2 | d2 A2 | FG Ad | A4 | A4- | A4 :| %136
V:2
 z4 | z4 | z4 | %3
"^Com  –   fort          ye,                                    Comfort  ye   my     people," A2 A2 | %4
 A4 | z4 | FF EE | FF z2 | z4 | z4 |"^saith your   God. ___" F2 E2 | E4- | E4 |: z4 | z4 | z4 | %16
"^Speak                         com–for – ta – bly     un     –     to    Je  –" F4 | AA AA | %18
 F2 FF |"^– ru – sa–lem," A>A A z | z4 | z4 | z4 | %23
 z2 z"^And    cry       un–to     her       that  her   warfare  is   ac –" F | A>B AG | F2 FF | %26
 FF E F/G/ |"^–complish'd," AA z2 | z4 | z4 | z4 | z4 | z4 | z4 | z4 | z4 | z4 | z4 | %38
 z2 z"^her   sins    are     pardon'd.   pardon'd." E | D2 E2 |1 F2 F2 :|2 F2 F z || z4 | z4 | z4 | %45
 z4 | z4 | z2 z"^For he hath re–cei– ved   of   the Lord's hand" F | F2 FF | FF EA | A2 F2 | z4 | %52
 z4 | z2 z F | F2 FF | AA AA | A2 F2 | B B2 B | A4 | A4 | F4 | z4 | z4 | z4 | z4 | z4 | z4 | z4 | %68
 z4 | z4 | z4 | z4 | z4 | z4 | z4 | z4 | z4 | z4 | z4 | z2"^a          highway" A2 | F2 F2 | %81
"^for our  God." GF E2 | F4 | z4 | z4 | z4 | z4 | z4 | z4 | z4 | z4 | z4 |: %92
"^Every   valley  shall" F2 F2 | F2 DF |"^be      ex – al – ted, and every" A3 A | A2 AG | F2 F2 | %97
"^mountain and hill made low.          And  the  glo –  ry    of      the   Lord,  And the  glo –  ry" GE AG | %98
 F2 E2 | F4 :| z4 | F3 F | A3 A | F2 A2 | A4 | F3 F | A3 A |"^of  the    Lord" E2 E2 | %108
[M:3/4] E4 z2 | z6 | z6 | z6 | z6 | z6 | z6 |: z6 | z6 | z6 | %118
 z2 z2"^And all flesh shall see it to –" F2 | D2 G2 A2 | G2 F2 E2 |1 %121
"^– gether.       –gether.                                                                                   Hal – le–lu–jah,  A     –     men.       Hal–le–lu–jah,   A  – men." F2 F2 z2 :|2 %122
 F2 F4 ||[M:2/4] z4 |: z4 | z4 | z4 | z4 | F3 F | F2 F2 | A4 | A2 z2 | AB AA | A4 | F4- | F4 :| %136
V:3
"^Comfort  ye,                       Comfort ye my people,             Comfort    ye          my            peo  – ple,  Comfort ye my peo  – ple," A2 A2 | %1
 A4 | z4 | AA Bc | dd z2 | A2 A2 | A2 c2 | d2 d2 | ed cB | A2 A2 |"^saith your   God. ___" B2 A^G | %11
 A4- | A4 |: %13
"^Speak com–for–ta–bly  un    –     to       Je  –  ru  –  sa – lem,                                                Speak" F4 | %14
 AA AA | B2 A^G | A>A A z | z4 | d4 | %19
"^com–for–ta–bly  un– to  Jerusalem,  And  cry        un – to    her     that  her  warfare is  ac–com–plish'd,  that  her        sins" ee ee | %20
 fe dc | B>B Bd | (A>B) AG | F2 A B/c/ | dA FA | d(d A) B/c/ | d2 B2 | %27
"^par  –   don'd.            And    cry unto   her,   And cry unto her that her warfare is  accomplish'd, that her sins          are" A2 A z | %28
 z2 z d | B2 BB | B2 z d | ef ed | c2 AA | dA FA | dd df | ed cB | %36
"^pardon'd, her sins are pardon'd, her sins are pardon'd.   pardon'd." A2 AA | d2 B2 | G2 EE | %39
 A2 c2 |1 d2 d2 :|2 d2 d z || z4 | z4 | z4 | z4 | z4 | %47
 z2 z"^For  he hath re–cei–ved of the Lord's hand double for all     her     sins.  For   he hath re–cei–ved  of    the" d | %48
 d2 AA | dd ee | f2 d2 | d B2 e/d/ | cB A^G | A3 A | d2 df | ee e a/g/ | %56
"^Lord's hand double for all her sins." f2 d2 | B d2 g/f/ | (e2 d2) | c4 | d4 | z4 | z4 | z4 | z4 | %65
 z4 | z4 | z4 | z4 | z4 | z4 | z4 | z4 | z4 | z4 | z4 | %76
"^Make straight in the  desert   a   highway" d4 | f4 | gf ed | c2 ee | f2 d2 | %81
"^for  our  God." ed c2 | d4 | z4 | z4 | z4 | z4 | z4 | z4 | z4 | z4 | z4 |: d2 d2 | f2 fd | e3 e | %95
 e2 dc | d2 d2 | eg fe | d2 c2 | d4 :| z4 | d3 f | e3 c | d2 e2 | f4 | a3 f | d3 f | e2 e2 | %108
[M:3/4] e4"^shall be revealed, And the" d2 | B4 ^A2 | B2 B2 cc | %111
"^glo – ry  of  the Lord shall be         re–vea–led.  And all flesh shall see  it , shall see it   to– ge–ther." d2 d2 de | %112
 f4 f2 | (d2 ed) c2 | d2 d2 f2 |: e2 e2 c2 | d2 d2 d2 | B2 A2 ^G2 | A2 A2 A2 | d2 e2 f2 | %120
 e2 d2 c2 |1 d2 d2"^And" f2 :|2 d2 d4 ||[M:2/4] z4 |: %124
"^Hal – le – lu –  jah,    A – men.      A      –     men.   Hal–le –  lu–jah,  Hal–le–lu–jah,   A  –  men." d3 A | %125
 GF ED | B4 | B2 z2 | A4 | A2 z2 | d2 A2 | FG A2 | de fd | e4 | d4- | d4 :| %136
V:4
 z4 | %1
"^Comfort  ye,                                     Comfort ye my people,  Com   –   fort            ye,               Comfort ye my people," D,2 A,,2 | %2
 D,4 | z4 | D,D, B,,A,, | D,D, z2 | D,2 A,,2 | D,4 | A,B, E,E, | A,,A,, z2 | %10
"^saith your   God. ___" D,2 E,2 | [A,,A,]4- | [A,,A,]4 |: z4 | %14
"^Speak                    com–for– ta –  bly    un      –      to     Je  –  ru  –   sa–lem," D,4 | %15
 D,D, D,E, | F,2 D,D, | A,>A, A, z | z4 | %19
"^Speak               comfortably un  –   to  Je – ru– sa–lem,                                          Speak                   com–for– ta – bly    un   –   to    Je  –" A,4 | %20
 A,A, A,A, | D2 D,D, | A,>A, A, z | z4 | D,4 | D,D, D,D, | B,,2 E,E, | %27
"^–ru–sa–lem," A,,>A,, A,, z | z2 z D, | E,2 E,E, | E,2 z D, | A,2 A,A, | A,2 A,,A,, | D,D, D,A, | %34
 D,D, D,D, | E,2 E,2 | A,2 A,A, | D2 B,2 | G,2 E,E, | A,2 A,,2 |1 D,2 D,2 :|2 D,2 D, z || z4 | z4 | %44
 z4 | z4 | z4 | z2 z"^For  he  hath re–cei–ved of the Lord's hand double" D, | D,2 D,D, | %49
 D,D, A,A, | D,2 F,2 | G, G,2 z | z4 | z2 z D, | D,2 D,D, | A,A, A,A, | D,2 D,2 | G, B,2 G, | A,4 | %59
 A,,4 | D,4 | z4 | z4 | z4 | z4 | z4 | z4 | z4 | z4 | z4 | z4 | z4 | z4 | z4 | z4 | z4 | %76
"^Make straight in  the  desert  a   highway  for  our  God.          Every" D4 | D,4 | E,2 F,G, | %79
 A,2 A,A, | D2 B,2 | G,2 A,2 | D,4 | z4 | D,2 E,2 | %85
"^valley shall  be      exalted, and every mountain and hill made low." F,2 F,D, | G,2 E,2 | %87
 A,2 A,F, | D,2 D,2 | B,,2 C,D, | E,2 E,2 | A,,4 |: D,2 D,2 | D, D,2 D, | A,3 A, | A,2 A,A, | %96
 B,2 G,2 | E,2 F,G, | A,2 A,,2 | D,4 :| z4 | D,3 D, | A,3 A, | B,2 A,2 | [D,D]4 | D,3 D, | D3 D | %107
 A,2 A,2 |[M:3/4] A,4 B,2 | E,4 F,2 | B,2 B,2 A,A, | D2 D2 DC | B,4 F,2 | (G,2 E,2) A,2 | %114
 D,2 D,2 D,2 |: A,2 A,2 A,2 | B,2 B,2 D2 | E2 E2 E,2 | A,2 A,2 F,2 | G,2 E,2 D,2 | G,2 A,2 A,,2 |1 %121
 D,2 D,2"^And" D,2 :|2 D,2 D,4 ||[M:2/4] z4 |: %124
"^Hal – le – lu –  jah,    A – men.     A       –      men.    Hal–le –  lu      –     jah, _____________    A  –  men." D,3 D, | %125
 D,2 E,F, | G,4 | G,2 z2 | D,4 | D,2 z2 | D,2 D,E, | F,E, D,2 | A,,4- | A,,4 | D,4- | D,4 :| %136

